X: 156
T: No_7_Niski'gwûn's_Dream_Song.krn
%%abc-version 2.0
%%abcx-abcm2ps-target-version 5.9.1 (29 Sep 2008)
%%abc-creator hum2abc beta
%%abcx-conversion-date 2020/08/10 18:54:56
%%gracespace 0 6 6
%%humdrum-veritas 2439290112
%%humdrum-veritas-data 511771878
%%linebreak <none>
%%barnumbers 0
L: 1/8
M: 3/4
%%staves {1 2}
V: 1 clef=bass
V: 2 clef=bass
K: G
[V:1] D3/D/ [I:setbarnb 1]| 
[V:2] G,,G,, | 
[V:1] _E6 ||  
[V:2] G,,G,, G,,G,, G,,G,, ||  
[V:1] [M:2/4]D4 ||  
[V:2] [M:2/4]z4 ||  
[V:1] [M:3/4]D2B,2D3/D/ | 
[V:2] [M:3/4]z6 | 
[V:1] D4-D/>E/D ||  
[V:2] z6 ||  
[V:1] [M:2/4]B,>C B,A, ||  
[V:2] [M:2/4]z4 ||  
[V:1] [M:3/4]G,2G,3G, ||  
[V:2] [M:3/4]z6 ||  
[V:1] [M:2/4]G,4- | 
[V:2] [M:2/4]z4 | 
[V:1] G,2D2 | 
[V:2] z4 | 
[V:1] B,2-B,/>C/B,/A,/ | 
[V:2] z4 | 
[V:1] G,<G, G,G, | 
[V:2] z4 | 
[V:1] E,2G,3/G,/ ||  
[V:2] z4 ||  
[V:1] [M:3/4]G,4-G,/>A,/G, | 
[V:2] [M:3/4]z6 | 
[V:1] E,2E,2E,E, ||  
[V:2] z6 ||  
[V:1] [M:2/4]D,4 ||  
[V:2] [M:2/4]z4 ||  
[V:1] [M:3/4]D,2B,,2D,3/D,/ ||  
[V:2] [M:3/4]z6 ||  
[V:1] [M:2/4]D,4 | 
[V:2] [M:2/4]z4 | 
[V:1] D,D,B,,2 | 
[V:2] z4 | 
[V:1] G,,4 |]  
[V:2] z4 |]  


